www/assets/icons/airline_seat_flat.svg

<svg xmlns="http://www.w3.org/2000/svg" width="24" height="24" viewBox="0 0 24 24" fill='currentColor'><path d="M22 10.5v2H9v-6h9c2.21 0 4 1.79 4 4m-20 3v2h6v2h8v-2h6v-2zm5.14-1.9a3 3 0 0 0-.04-4.24 3 3 0 0 0-4.24.04 3 3 0 0 0 .04 4.24 3 3 0 0 0 4.24-.04"/></svg>

<svg width="24" height="24" viewBox="0 0 24 24" xmlns="http://www.w3.org/2000/svg" fill='currentColor'><path d="M22 10.5V12.5H9V6.5H18C20.21 6.5 22 8.29 22 10.5ZM2 13.5V15.5H8V17.5H16V15.5H22V13.5H2ZM7.14 11.6C8.3 10.41 8.28 8.52 7.1 7.36C5.91 6.2 4.02 6.22 2.86 7.4C1.7 8.59 1.72 10.48 2.9 11.64C4.09 12.8 5.98 12.78 7.14 11.6Z"/></svg>
